X: 4
T: Wink and She'll Follow You
M: 9/8
L: 1/8
R: slip jig
K:EDor
|: F |\
E2 E B2 A Bcd | E2 E BAF A2 F | 
E2 E B2 A BB/c/d | cBA BAF A2 :|
|: c |\
d2 d fdf Bcd | c2 c ecA ABc |
dcd fd/e/f Bcd | c2 A BAF A2 :|
